assets/Search/moon3.svg

<svg id="Layer_1" height="512" viewBox="0 0 512 512" width="512" xmlns="http://www.w3.org/2000/svg" xmlns:xlink="http://www.w3.org/1999/xlink" data-name="Layer 1"><linearGradient id="linear-gradient" gradientUnits="userSpaceOnUse" x1="300.572" x2="300.572" y1="485.106" y2="105.814"><stop offset=".322" stop-color="#a163f5"/><stop offset=".466" stop-color="#b074ee"/><stop offset=".752" stop-color="#d8a1dd"/><stop offset=".898" stop-color="#efbad3"/></linearGradient><linearGradient id="linear-gradient-2" x1="256" x2="256" xlink:href="#linear-gradient" y1="485.105" y2="105.814"/><path d="m272.734 227.86c15.031 2.874 19.186 15.16 20.325 22.224a6.485 6.485 0 0 0 6.088 5.466c.122.007.243.01.364.01a6.562 6.562 0 0 0 6.408-5.2c2.07-10.047 6.181-19.625 22.11-21.663a6.205 6.205 0 0 0 .183-12.288c-15.824-2.5-19.636-12.267-21.4-22.446a6.545 6.545 0 0 0 -12.863-.125c-1.374 7.093-5.935 19.357-21.035 21.792a6.206 6.206 0 0 0 -.18 12.226zm27.205-16.733a32.12 32.12 0 0 0 10.253 11.149 32.118 32.118 0 0 0 -10.608 10.784 34.547 34.547 0 0 0 -10.119-11.08 34.779 34.779 0 0 0 10.474-10.853z" fill="url(#linear-gradient)"/><path d="m494.428 267.757a8.28 8.28 0 0 0 -9.69 3.447 177.3 177.3 0 0 1 -149.916 83.318c7.331-4.933 17.524-8.01 31.976-6.144a6.344 6.344 0 0 0 3.356-12.11c-30.647-13.413-28.622-37.815-27.649-49.544a6.921 6.921 0 0 0 -5.328-7.253 6.831 6.831 0 0 0 -7.782 3.709c-5.671 11.877-19.357 31.4-47.311 28.719a6.345 6.345 0 0 0 -3.332 12.05c14.531 6.923 21.3 17.622 24.21 27.946-84.43-15.058-147.1-89.133-147.1-175.645a177.556 177.556 0 0 1 83.26-150.907 8.313 8.313 0 0 0 -5.214-15.307 244.74 244.74 0 0 0 -221.988 243.764c0 66.044 27.516 130.148 75.624 176.615-6.812 12.576-17.387 21.121-25.4 26.2a7.109 7.109 0 0 0 -2.863 8.479 7.187 7.187 0 0 0 8.159 4.62c15.412-3.184 47.48-9.81 70.308 29.07a6.452 6.452 0 0 0 11.828-4.843 75.9 75.9 0 0 1 -2.46-21.286 239.31 239.31 0 0 0 109.384 25.945 244.69 244.69 0 0 0 243.547-222.19 8.309 8.309 0 0 0 -5.619-8.653zm-195.569 55.262c14.563-2.964 24.823-11.274 31.715-19.56a50.514 50.514 0 0 0 17.5 33.2 50.271 50.271 0 0 0 -32.027 19.292c-1.664-10.594-6.207-22.931-17.188-32.932zm-163.786 152.33c-15.683-16.136-33.393-20.065-47.791-20.065-1.435 0-2.839.039-4.2.109 11.133-10.661 22.672-27.2 23.273-50.24 16.608 15.936 36.506 19.529 51.988 19.251-11.334 10.089-23.381 26.146-23.27 50.945zm278.605-49.949a231.806 231.806 0 0 1 -157.178 61.2 227.422 227.422 0 0 1 -107.52-26.518c5.48-20.168 21.447-30.567 30.6-36.528a7.2 7.2 0 0 0 2.558-9 7.1 7.1 0 0 0 -8.008-4.031c-17.324 3.793-49.4 5.38-69.609-26.582a6.452 6.452 0 0 0 -11.767 4.82 61.6 61.6 0 0 1 -.365 29.58c-43.613-43.908-68.47-103.355-68.469-164.541a232.794 232.794 0 0 1 196.231-229.968 189.352 189.352 0 0 0 -76.285 152.418c0 93.7 68.879 173.722 161.01 188.127a63.4 63.4 0 0 1 -.245 8.3 6.914 6.914 0 0 0 13.067 3.7 82.466 82.466 0 0 1 5.756-10.261c3.454.225 7.1.42 10.527.42a189.066 189.066 0 0 0 152.267-76.336 232.233 232.233 0 0 1 -72.57 135.2z" fill="url(#linear-gradient-2)"/></svg>

<?xml version="1.0" encoding="utf-8"?>
<svg width="512px" height="512px" viewBox="0 0 512 512" version="1.1" xmlns:xlink="http://www.w3.org/1999/xlink" xmlns="http://www.w3.org/2000/svg">
  <defs>
    <linearGradient gradientUnits="userSpaceOnUse" x1="32.88744" y1="296.53854" x2="32.88744" y2="-82.7534" id="gradient_1">
      <stop offset="32.2%" stop-color="#A163F5" />
      <stop offset="46.599995%" stop-color="#B074EE" />
      <stop offset="75.2%" stop-color="#D8A1DD" />
      <stop offset="89.8%" stop-color="#EFBAD3" />
    </linearGradient>
    <linearGradient gradientUnits="userSpaceOnUse" x1="244.08" y1="475.10583" x2="244.08" y2="95.814804" id="gradient_2">
      <stop offset="32.2%" stop-color="#A163F5" />
      <stop offset="46.599995%" stop-color="#B074EE" />
      <stop offset="75.2%" stop-color="#D8A1DD" />
      <stop offset="89.8%" stop-color="#EFBAD3" />
    </linearGradient>
    <path d="M0 0L512 0L512 512L0 512L0 0Z" id="path_1" />
    <clipPath id="mask_1">
      <use xlink:href="#path_1" />
    </clipPath>
  </defs>
  <g id="moon3">
    <path d="M0 0L512 0L512 512L0 512L0 0Z" id="Background" fill="#FFFFFF" fill-opacity="0" fill-rule="evenodd" stroke="none" />
    <g clip-path="url(#mask_1)">
      <path d="M272.734 227.86C287.765 230.734 291.92 243.02 293.059 250.084C293.538 253.118 296.079 255.4 299.147 255.55C299.269 255.557 299.39 255.56 299.511 255.56C302.606 255.555 305.277 253.388 305.919 250.36C307.989 240.313 312.1 230.735 328.029 228.697C331.098 228.312 333.416 225.726 333.462 222.633C333.508 219.539 331.269 216.885 328.212 216.409C312.388 213.909 308.576 204.142 306.812 193.963C306.259 190.865 303.58 188.598 300.432 188.568C297.285 188.537 294.562 190.751 293.949 193.838C292.575 200.931 288.014 213.195 272.914 215.63C269.936 216.105 267.73 218.652 267.685 221.667C267.641 224.683 269.771 227.294 272.734 227.856L272.734 227.86ZM299.939 211.127C302.419 215.608 305.934 219.43 310.192 222.276C305.848 224.975 302.211 228.672 299.584 233.06C297.064 228.67 293.609 224.887 289.465 221.98C293.708 219.172 297.284 215.467 299.939 211.127L299.939 211.127Z" id="Shape" fill="url(#gradient_1)" fill-rule="evenodd" stroke="none" />
      <path d="M494.428 267.757C490.789 266.517 486.776 267.945 484.738 271.204C452.417 322.907 395.796 354.375 334.822 354.522C342.153 349.589 352.346 346.512 366.798 348.378C369.936 348.794 372.9 346.833 373.745 343.783C374.59 340.733 373.058 337.526 370.154 336.268C339.507 322.855 341.532 298.453 342.505 286.724C342.758 283.324 340.497 280.246 337.177 279.471C334.032 278.708 330.783 280.256 329.395 283.18C323.724 295.057 310.038 314.58 282.084 311.899C279.014 311.599 276.173 313.55 275.351 316.523C274.529 319.496 275.964 322.629 278.752 323.949C293.283 330.872 300.052 341.571 302.962 351.895C218.532 336.837 155.862 262.762 155.862 176.25C155.704 114.947 187.179 57.8988 239.122 25.3427C242.376 23.2897 243.795 19.273 242.555 15.6318C241.314 11.9906 237.738 9.67595 233.908 10.036C108.072 21.7851 11.8767 127.416 11.92 253.8C11.92 319.844 39.436 383.948 87.544 430.415C80.732 442.991 70.157 451.536 62.144 456.615C59.3072 458.411 58.1134 461.946 59.281 465.094C60.4833 468.44 63.9519 470.404 67.44 469.714C82.852 466.53 114.92 459.904 137.748 498.784C139.367 501.568 142.79 502.731 145.77 501.511C148.75 500.291 150.374 497.061 149.576 493.941C147.754 486.998 146.925 479.831 147.116 472.655C181 489.866 218.496 498.76 256.5 498.6C382.88 498.545 488.426 402.255 500.047 276.41C500.408 272.571 498.082 268.988 494.428 267.757L494.428 267.757ZM298.859 323.019C313.422 320.055 323.682 311.745 330.574 303.459C331.927 316.362 338.194 328.25 348.074 336.659C335.315 338.733 323.845 345.642 316.047 355.951C314.383 345.357 309.84 333.02 298.859 323.019L298.859 323.019ZM135.073 475.349C119.39 459.213 101.68 455.284 87.282 455.284C85.847 455.284 84.443 455.323 83.082 455.393C94.215 444.732 105.754 428.193 106.355 405.153C122.963 421.089 142.861 424.682 158.343 424.404C147.009 434.493 134.962 450.55 135.073 475.349L135.073 475.349ZM413.678 425.4C370.83 464.814 314.719 486.662 256.5 486.6C219.023 486.755 182.088 477.646 148.98 460.082C154.46 439.914 170.427 429.515 179.58 423.554C182.531 421.592 183.616 417.775 182.138 414.554C180.762 411.482 177.417 409.798 174.13 410.523C156.806 414.316 124.73 415.903 104.521 383.941C102.854 381.28 99.5135 380.206 96.608 381.396C93.7024 382.586 92.0755 385.695 92.7541 388.761C95.0369 398.504 94.9116 408.657 92.3891 418.341C48.7761 374.433 23.9191 314.986 23.9201 253.8C23.9201 139.259 107.152 41.7714 220.214 23.8221C172.038 59.6537 143.71 116.21 143.866 176.25C143.866 269.95 212.745 349.972 304.876 364.377C304.976 367.146 304.894 369.919 304.631 372.677C304.344 375.981 306.444 379.023 309.636 379.927C312.827 380.831 316.21 379.341 317.698 376.377C319.37 372.824 321.294 369.395 323.454 366.116C326.908 366.341 330.554 366.536 333.981 366.536C393.973 366.69 450.478 338.362 486.248 290.2C478.076 342.187 452.488 389.858 413.678 425.4L413.678 425.4Z" id="Shape" fill="url(#gradient_2)" fill-rule="evenodd" stroke="none" />
    </g>
  </g>
</svg>
